X:270
T: Humors of Loughrea
T: Tommy Whelan's
S: "Music from Ireland 3" (Bulmer & Sharpley)
Z: B.Black
R: reel
M: 4/4
L: 1/8
K: G
GFGA BA A2|bgag egdB|GFGA BAGB|ABAG ED D2|
GFGA BA A2|bgag egdB|GFGA BAGB|ABAG E4 ||
ge e2 fdBd|ge e2 gaba|geed edBd|eaag agef|
ge e2 fdBd|ge e2 gaba|g3b a2 ge|dgbg egdB||
